!!!OTL: 468. An den Mond.
!!!ARE: Europa, Mitteleuropa, Deutschland
!!!SCT: B0468
!!!TXL: @@DE
!!!YEM: Copyright 1995, estate of Helmut Schaffrath.
**kern	**text
*ICvox	*
*Ivox	*
*clefG2	*
*M4/4	*
*met(c)	*
*k[f#]	*
*G:	*
!LO:TX:a:t=Ruhig.	!
{8dd	Gu-
8cc	-ter
=1	=1
4b	Mond,
4b	du
8bL	gehſt
8ccJ	.
8ddL	ſo
8eeJ	.
=2	=2
8ddL	ſtil-
8ccJ	.
4a	-le
4r}	.
{8dd	in
8cc	den
=3	=3
4b	A-
4b	-bend-
8aL	-wol-
8gJ	.
8aL	-ken
8bJ	.
=4	=4
2g	hin,
4r}	.
{8dd	biſt
8cc	ſo
=5	=5
4b	ruh-
4b	-ig,
8bL	und
8ccJ	.
8ddL	ich
8eeJ	.
=6	=6
8ddL	füh-
8ccJ	.
4a	-le,
4r}	.
{8dd	daß
8cc	ich
=7	=7
4b	oh-
4b	-ne
8aL	Ru-
8gJ	.
8aL	-he
8bJ	.
=8	=8
2g	bin.
4r}	.
{8a	Traurig
8b	.
=9	=9
4cc	fol-
4a	-gen
4r	.
8b	mei-
8cc	-ne
=10	=10
4dd	Bli-
4b	-cke
4r}	.
{8dd	dei-
8dd	-ner
=11	=11
4.ee	ſtil-
8dd	-len
8eeL	hei-
8ddJ	.
8ccL	-tern
8bJ	.
=12	=12
(<4b	Bahn.
4a)	.
4r}	.
{8dd	O
8cc	wie
=13	=13
4b	hart
4b	iſt
8bL	mein
8ccJ	.
8ddL	Ge-
8eeJ	.
=14	=14
8ddL	-ſchi-
8ccJ	.
4a	-cke,
4r}	.
{8dd	daß
8cc	ich
=15	=15
4b	dir
4b	nicht
8aL	ſol-
8gJ	.
8aL	-gen
8bJ	.
=16	=16
2g	kann!
4r}	.
==	==
!!!AGN: Liebes - Lied, Leid, Klage
!!!GTL: Liebeslieder - Liebesleid
!!!ONB: ESAC (Essen Associative Code) Database: BOEHME
!!!AMT: simple quadruple
!!!AIN: vox
!!!EED: Helmut Schaffrath
!!!EEV: 1.0
!!!RDF**kern: < = below
!!Weiſe des 18. Jahrh.
!!@@COMMENT:"Text um 1780-1800 entſtanden, Verf. unbekannt, aus gleicher Ʒeit auch die Singweiſe.
!!Dieſes Lied mit ſeinem überaus langweiligen Liebesjammer wurde bis um 1850 geſungen, gewöhnlich aber blos die 
!!erſte Strophe und ʒuletʒt blos ʒum Jux. Vollſtändig findet es ſich dis heute
!!in allen Taſchenliederbüchern.[...]"
!!@@END:
!!!URL-scan: https://archive.org/details/BoehmeVtLieder1895/page/n375/mode/2up
!!!ENC: Anna Maria Matuszewska
!!!EEV: 2024/10/07
*-	*-
